lib/svgs/pull-request.svg

<?xml version="1.0" encoding="UTF-8" standalone="no"?>
<svg width="20px" height="20px" viewBox="0 0 20 20" version="1.1" xmlns="http://www.w3.org/2000/svg" xmlns:xlink="http://www.w3.org/1999/xlink">
    <defs></defs>
    <g id="Icons" stroke="none" stroke-width="1" fill="none" fill-rule="evenodd">
        <g id="Web" transform="translate(-49.000000, -1710.000000)" fill="#000000">
            <g id="git/pull-request" transform="translate(49.000000, 1710.000000)">
                <path d="M16.9366867,15.2802965 C16.7780789,14.7803335 16.4926821,14.3741236 16.0488399,14.0928645 C15.9537076,14.0304691 15.922051,13.9679137 15.922051,13.8741606 L15.922051,7.37464198 C15.922051,6.74972825 15.8269188,6.15601222 15.5098654,5.59349388 C15.0342042,4.84362941 14.3049652,4.43741949 13.4487749,4.2185557 C13.1317216,4.15616032 12.8146682,4.15616032 12.4976148,4.12496263 L11.5781113,4.12496263 L11.5781113,2 L11.4829791,2.09375306 L8.40741527,5.12488858 C8.40741527,5.12488858 8.37559629,5.12488858 8.34393966,5.15608627 C8.34393966,5.06233322 8.31228302,4.96858016 8.31228302,4.8748271 C8.15367517,3.84370346 7.26582832,3.06248132 6.21953595,3.06248132 C5.14158695,3.06248132 4.22192113,3.7811481 4.03181898,4.81227173 C4.03181898,4.84362941 4,4.8748271 4,4.93738247 L4,5.46854313 L4.09513225,5.78099999 C4.22192113,6.28096297 4.53913684,6.6559752 4.9829791,6.96843206 C5.04645471,6.99962975 5.07811134,7.06218512 5.07811134,7.15593817 L5.07811134,13.8741606 C5.07811134,13.936716 5.04645471,14.0304691 4.9829791,14.0616668 C4.4440046,14.436679 4.12695122,14.9052843 4.03181898,15.5615557 L4,15.5927534 L4,16.124074 C4,16.1552717 4.03181898,16.2176671 4.03181898,16.2490248 C4.22192113,17.217593 5.07811134,17.9364198 6.02927146,17.9988152 C7.01225056,18.0301729 7.90009741,17.4364568 8.21715078,16.5302839 C8.53420415,15.6241111 8.18549414,14.6553828 7.36096056,14.0928645 C7.26582832,14.0304691 7.26582832,13.9679137 7.26582832,13.8741606 L7.26582832,7.18713586 C7.26582832,7.06218512 7.29764729,6.99962975 7.39277954,6.93723437 C7.86827843,6.62477751 8.15367517,6.18720991 8.28046405,5.62485156 C8.31228302,5.49974082 8.34393966,5.37479008 8.34393966,5.18728396 L11.609768,8.37456793 L11.609768,6.24976528 L12.7511926,6.24976528 C13.3219861,6.28096297 13.7658283,6.81212363 13.7658283,7.43719734 L13.7658283,13.8741606 C13.7658283,13.9991114 13.702515,14.0616668 13.6390394,14.0928645 C12.8146682,14.6553828 12.4976148,15.5927534 12.7830116,16.4989263 C13.0684083,17.3739015 13.8927795,17.9988152 14.8439397,17.9988152 C15.7950998,17.9988152 16.65129,17.3739015 16.9048678,16.4677286 C16.9683434,16.3739755 16.9683434,16.2490248 17,16.124074 L17,15.5927534 C17,15.4990003 16.9683434,15.3740496 16.9366867,15.2802965 L16.9366867,15.2802965 L16.9366867,15.2802965 Z M7.26582832,15.8740125 C7.26582832,16.4677286 6.75851045,16.9364939 6.15622268,16.9364939 C5.55377257,16.9051362 5.07811134,16.4365309 5.07811134,15.8428149 C5.07811134,15.2490988 5.58542921,14.7803335 6.18787932,14.7803335 C6.75851045,14.7803335 7.26582832,15.2802965 7.26582832,15.8740125 L7.26582832,15.8740125 L7.26582832,15.8740125 Z M14.8439397,16.9364939 C14.2414895,16.9051362 13.7658283,16.4365309 13.7658283,15.8428149 C13.7658283,15.2490988 14.2414895,14.7803335 14.8439397,14.7803335 C15.4463898,14.7803335 15.922051,15.2802965 15.922051,15.8740125 C15.922051,16.4677286 15.4463898,16.9364939 14.8439397,16.9364939 L14.8439397,16.9364939 L14.8439397,16.9364939 Z M6.18787932,6.24976528 C5.58542921,6.24976528 5.07811134,5.78099999 5.07811134,5.18728396 C5.07811134,4.59356793 5.58542921,4.12496263 6.18787932,4.12496263 C6.75851045,4.12496263 7.26582832,4.59356793 7.26582832,5.18728396 C7.26582832,5.78099999 6.75851045,6.24976528 6.18787932,6.24976528 L6.18787932,6.24976528 L6.18787932,6.24976528 Z" id="Shape"></path>
            </g>
        </g>
    </g>
</svg>

<svg xmlns="http://www.w3.org/2000/svg" viewBox="0 0 20 20">
    <path fill="#000" fill-rule="evenodd" d="M16.937 15.28a2.106 2.106 0 0 0-.888-1.187c-.095-.063-.127-.125-.127-.219v-6.5a3.51 3.51 0 0 0-.412-1.78c-.476-.75-1.205-1.157-2.061-1.375-.317-.063-.634-.063-.951-.094h-.92V2l-.095.094-3.076 3.03s-.031 0-.063.032c0-.094-.032-.187-.032-.281A2.133 2.133 0 0 0 6.22 3.062a2.178 2.178 0 0 0-2.188 1.75c0 .032-.032.063-.032.125v.532l.095.312c.127.5.444.875.888 1.187.063.032.095.094.095.188v6.718c0 .063-.032.156-.095.188a2.1 2.1 0 0 0-.951 1.5l-.032.03v.532c0 .031.032.094.032.125a2.208 2.208 0 0 0 1.997 1.75 2.229 2.229 0 0 0 2.188-1.469 2.09 2.09 0 0 0-.856-2.437c-.095-.063-.095-.125-.095-.219V7.187c0-.125.032-.187.127-.25.475-.312.76-.75.887-1.312.032-.125.064-.25.064-.438l3.266 3.188V6.25h1.141c.571.031 1.015.562 1.015 1.187v6.437c0 .125-.063.188-.127.219a2.09 2.09 0 0 0-.856 2.406c.285.875 1.11 1.5 2.06 1.5.952 0 1.808-.625 2.062-1.531.063-.094.063-.219.095-.344v-.531c0-.094-.032-.219-.063-.313zm-9.671.594c0 .594-.507 1.062-1.11 1.062a1.109 1.109 0 0 1-1.078-1.093c0-.594.507-1.063 1.11-1.063.57 0 1.078.5 1.078 1.094zm7.578 1.062a1.109 1.109 0 0 1-1.078-1.093c0-.594.475-1.063 1.078-1.063.602 0 1.078.5 1.078 1.094 0 .594-.476 1.062-1.078 1.062zM6.188 6.25c-.603 0-1.11-.469-1.11-1.063 0-.593.507-1.062 1.11-1.062.57 0 1.078.469 1.078 1.062 0 .594-.507 1.063-1.078 1.063z"/>
</svg>
